X: 20
T:Morgan Rattler
M:6/8
L:1/8
S:Josh. Jackson MS
Z:C.G.P
K:D
|:AFE EFG|FEF D2B|AFE EFD|B2A Bcd|!AFE EFG|FEF D2d|dcB edc|B2A Bcd:|!
|:dcd fed|cAc edc|ded fed|f2e fga|!d2e f2g|agf edc|dcB edc|B2A Bcd:|!
|:D2d dcd|E2e ede|D2d dcd|BcA Bcd|!D2d dcd|E2e efg|agf edc|B2A Bcd:|]
